X: 23051
T: Last Train From Loughrea
R: jig
M: 6/8
K: Dmajor
|:DEF DEF|A2 F ABd|fed e2 d|fed B2 A|
d3 d2 d|dcB A2 F|DEF A2 F|FED D3:|
|:FAA B2 A|FAA B2 A|FAA FAA|def edB|
d3 d2 d|dcB A2 F|DEF A2 F|FED D3:|
|:F3 FED|F3 FED|FGF FED|FAA B2 A|
d3 d2 d|dcB A2 F|DEF A2 F|FED D2 a:|
|:afd d2 a|afd def|gfe edB|dcB ABc|
d3 d2 d|dcB A2 F|DEF A2 F|FED D3:|

